app/dist/common/images/arab-sea-information-system-co.svg

<svg height="18" viewBox="0 0 18 18" width="18" xmlns="http://www.w3.org/2000/svg"><path d="m0 0h18v18h-18z" fill="#f0f3fa"/><g fill="#f2cd00"><path d="m9 11.71h.71l1.79-3.21-.36-.64-2.14 3.84z"/><path d="m12.92 11h-1.42l.71-1.21-.36-.65-1.42 2.57h2.14l.35.65h-7.85l4.29-7.72-.36-.64-5 9h10z"/><path d="m8.64 7.21.72 1.29-1.43 2.5h-.73l1.43-2.5-.36-.64-2.14 3.85h2.14l1.79-3.21-.71-1.29.35-.64.72 1.29.35-.65-1.06-1.91-1.07 1.9z"/></g></svg>

<!-- by TradingView --><svg width="18" height="18" viewBox="0 0 18 18" xmlns="http://www.w3.org/2000/svg"><path fill="#F0F3FA" d="M0 0h18v18H0z"/><path d="M9 11.71h.71L11.5 8.5l-.36-.64L9 11.7Z" fill="#F2CD00"/><path d="M12.92 11H11.5l.71-1.21-.36-.65-1.42 2.57h2.14l.35.65H5.07l4.29-7.72L9 4l-5 9h10l-1.08-2Z" fill="#F2CD00"/><path d="m8.64 7.21.72 1.29L7.93 11H7.2l1.43-2.5-.36-.64-2.14 3.85h2.14l1.79-3.21-.71-1.29.35-.64.72 1.29.35-.65L9.71 5.3 8.64 7.2Z" fill="#F2CD00"/></svg>
